resources/svg/major-soft-pack.svg

<svg xmlns="http://www.w3.org/2000/svg" viewBox="0 0 20 20" fill="currentColor"><path d="M2 1.5v17c0 .8.7 1.5 1.5 1.5h13.1c.8 0 1.5-.7 1.5-1.5v-17c0-.8-.7-1.5-1.5-1.5h-13.1c-.8 0-1.5.7-1.5 1.5zm14 16.5h-12v-16h12v16z"/><path d="M6 4h-3v2h3v-2zm11 0h-3v2h3v-2zm-5 0h-4v2h4v-2zm-2 6h-4v2h4v-2zm2 4h-6v2h6v-2z"/></svg>

<svg xmlns="http://www.w3.org/2000/svg" viewBox="0 0 20 20" fill="currentColor"><path fill="#5C5F62" d="M2 1.5v17c0 .8.7 1.5 1.5 1.5h13.1c.8 0 1.5-.7 1.5-1.5v-17c0-.8-.7-1.5-1.5-1.5H3.5C2.7 0 2 .7 2 1.5zM16 18H4V2h12v16z"/><path fill="#5C5F62" d="M6 4H3v2h3V4zM17 4h-3v2h3V4zM12 4H8v2h4V4zM10 10H6v2h4v-2zM12 14H6v2h6v-2z"/></svg>
